src/assets/images/github-icon.svg

<?xml version="1.0" encoding="UTF-8"?>
<svg width="21px" height="20px" viewBox="0 0 21 20" version="1.1" xmlns="http://www.w3.org/2000/svg" xmlns:xlink="http://www.w3.org/1999/xlink">
    <title>github-icon</title>
    <g id="Welcome" stroke="none" stroke-width="1" fill="none" fill-rule="evenodd">
        <g id="Contact" transform="translate(-81.000000, -69.000000)" fill="#FFFFFF" fill-rule="nonzero">
            <g id="Icons" transform="translate(16.000000, 69.000000)">
                <g id="github-icon" transform="translate(65.000000, 0.000000)">
                    <path d="M0,10.253172 C0,14.783292 3.0085944,18.6266186 7.18060023,19.9823777 C7.7053613,20.0772893 7.89801693,19.7599552 7.89801693,19.4891429 C7.89801693,19.2446479 7.88827993,18.4369652 7.8837591,17.5802138 C4.9626248,18.2004502 4.3462307,16.3704725 4.3462307,16.3704725 C3.86859037,15.1853507 3.1803849,14.8702236 3.1803849,14.8702236 C2.22771267,14.2338575 3.25219627,14.2469311 3.25219627,14.2469311 C4.30658667,14.3192609 4.86177603,15.3035234 4.86177603,15.3035234 C5.7982778,16.8710084 7.31813693,16.4178434 7.91731733,16.1558602 C8.0115588,15.4931768 8.28367633,15.0408609 8.58396187,14.7848202 C6.25174923,14.5255536 3.80008277,13.64639 3.80008277,9.71765999 C3.80008277,8.59824612 4.21025873,7.68359703 4.88194583,6.96556249 C4.7729248,6.70731454 4.413521,5.66447522 4.98366377,4.25217658 C4.98366377,4.25217658 5.86539427,3.97661022 7.8719354,5.3031659 C8.70950103,5.07598908 9.6077499,4.96206136 10.500087,4.95815613 C11.3924239,4.96206136 12.2913681,5.07598908 13.130499,5.3031659 C15.1346057,3.97661022 16.0151189,4.25217658 16.0151189,4.25217658 C16.5866528,5.66447522 16.2270752,6.70731454 16.1180542,6.96556249 C16.7913062,7.68359703 17.1987002,8.59824612 17.1987002,9.71765999 C17.1987002,13.6557284 14.742339,14.522837 12.4042144,14.7766704 C12.7808322,15.0948536 13.1164147,15.7188252 13.1164147,16.6754122 C13.1164147,18.0473011 13.1042434,19.1514341 13.1042434,19.4891429 C13.1042434,19.7619927 13.2932478,20.0817038 13.8254853,19.9810195 C17.9952309,18.6237322 21,14.7817641 21,10.253172 C21,4.59039477 16.2988863,0 10.500087,0 C4.70180923,0 0,4.59039477 0,10.253172 Z" id="Fill-5"></path>
                </g>
            </g>
        </g>
    </g>
</svg>

<svg xmlns="http://www.w3.org/2000/svg" width="21" height="20"  xmlns:v="https://vecta.io/nano"><path d="M0 10.253c0 4.53 3.009 8.373 7.181 9.729.525.095.717-.222.717-.493l-.014-1.909c-2.921.62-3.538-1.21-3.538-1.21-.478-1.185-1.166-1.5-1.166-1.5-.953-.636.072-.623.072-.623 1.054.072 1.61 1.057 1.61 1.057.937 1.567 2.456 1.114 3.056.852.094-.663.366-1.115.667-1.371C6.252 14.526 3.8 13.646 3.8 9.718c0-1.119.41-2.034 1.082-2.752-.109-.258-.468-1.301.102-2.713 0 0 .882-.276 2.888 1.051.838-.227 1.736-.341 2.628-.345a10.32 10.32 0 0 1 2.63.345c2.004-1.327 2.885-1.051 2.885-1.051.572 1.412.212 2.455.103 2.713.673.718 1.081 1.633 1.081 2.752 0 3.938-2.456 4.805-4.794 5.059.377.318.712.942.712 1.899l-.012 2.814c0 .273.189.593.721.492C17.995 18.624 21 14.782 21 10.253 21 4.59 16.299 0 10.5 0S0 4.59 0 10.253z" fill="#fff"/></svg>
